apps/site/public/icons/companies/sqlite.svg

<svg width="48" height="48" viewBox="0 0 48 48" fill="none" xmlns="http://www.w3.org/2000/svg">
<g clip-path="url(#clip0_4437_8766)">
<path d="M35.5862 3.4361H7.27515C5.37536 3.4361 3.8335 4.99173 3.8335 6.87776V38.1005C3.8335 40.0003 5.38913 41.5421 7.27515 41.5421H25.9289C25.7224 32.2634 28.8888 14.2567 35.5931 3.40857L35.5862 3.4361Z" fill="#0F80CC"/>
<path d="M34.5576 4.44797H7.27903C5.9299 4.44797 4.83545 5.5493 4.83545 6.89154V35.8359C11.0167 33.4611 20.2885 31.4168 26.7037 31.5132C28.6815 22.3171 31.3014 13.2727 34.5576 4.44797Z" fill="url(#paint0_linear_4437_8766)"/>
<path d="M42.1943 2.41748C40.2532 0.69665 37.9059 1.38498 35.5863 3.43621L34.5538 4.44117C30.589 8.64 26.9821 16.4319 25.7707 22.386C26.2023 23.329 26.5434 24.3108 26.7894 25.3183L26.9408 26.0066L27.0923 26.7087C27.0923 26.7087 27.0578 26.571 26.9133 26.158L26.8169 25.8827C26.7976 25.8317 26.7769 25.7812 26.755 25.7313C26.4934 25.1324 25.7913 23.859 25.4678 23.3083C25.2174 24.0403 24.981 24.7769 24.7588 25.5179C25.6674 27.1837 26.2181 30.0333 26.2181 30.0333C26.2181 30.0333 26.1699 29.8475 25.9427 29.2073C25.7362 28.636 24.7313 26.867 24.4972 26.454C24.0842 27.9683 23.9259 28.9871 24.0705 29.2349C24.3458 29.7167 24.6211 30.6115 24.8621 31.4651C25.2338 32.9787 25.537 34.5084 25.7707 36.0494L25.8051 36.4761C25.7337 38.1974 25.7682 39.9215 25.9083 41.6386C26.0873 43.7931 26.4246 45.6447 26.8513 46.6359L27.1404 46.4776C26.5209 44.5227 26.2594 41.969 26.3695 39.0161C26.5416 34.5075 27.5741 29.0697 29.4945 23.4047C32.7503 14.7799 37.2383 7.91037 41.3545 4.63391C37.6031 8.0205 32.5301 18.9787 31.0157 23.033C29.3156 27.576 28.111 31.8437 27.3814 35.9255C28.6341 32.0983 32.6815 30.4463 32.6815 30.4463C32.6815 30.4463 34.6777 27.9959 36.9905 24.4923L32.5507 25.6762L31.119 26.3095C31.119 26.3095 34.7672 24.0862 37.9128 23.0743C42.2287 16.2805 46.93 6.62319 42.1943 2.4106" fill="#003B57"/>
</g>
<defs>
<linearGradient id="paint0_linear_4437_8766" x1="21.9818" y1="5.08812" x2="21.9818" y2="34.0944" gradientUnits="userSpaceOnUse">
<stop stop-color="#97D9F6"/>
<stop offset="0.92024" stop-color="#0F80CC"/>
<stop offset="1" stop-color="#0F80CC"/>
</linearGradient>
<clipPath id="clip0_4437_8766">
<rect width="45.1201" height="45.1201" fill="white" transform="translate(1.43994 1.43994)"/>
</clipPath>
</defs>
</svg>

<svg xmlns="http://www.w3.org/2000/svg" width="48" height="48" fill="none" viewBox="0 0 48 48"><g clip-path="url(#a)"><path fill="#0f80cc" d="M35.586 3.436H7.276a3.45 3.45 0 0 0-3.442 3.442V38.1c0 1.9 1.555 3.442 3.441 3.442H25.93c-.207-9.279 2.96-27.285 9.664-38.133z"/><path fill="url(#b)" d="M34.558 4.448H7.279a2.45 2.45 0 0 0-2.444 2.444v28.944c6.182-2.375 15.453-4.42 21.869-4.323a199 199 0 0 1 7.854-27.065"/><path fill="#003b57" d="M42.194 2.417c-1.94-1.72-4.288-1.032-6.608 1.02L34.554 4.44c-3.965 4.199-7.572 11.99-8.783 17.945a16.4 16.4 0 0 1 1.018 2.932l.152.689.151.702s-.034-.138-.179-.551l-.096-.275a3 3 0 0 0-.062-.152c-.262-.599-.964-1.872-1.287-2.423q-.375 1.098-.71 2.21c.91 1.666 1.46 4.515 1.46 4.515s-.048-.186-.275-.826c-.207-.571-1.212-2.34-1.446-2.753-.413 1.514-.571 2.533-.427 2.78.276.483.551 1.377.792 2.231q.558 2.272.909 4.584l.034.427a42 42 0 0 0 .103 5.163c.18 2.154.517 4.006.943 4.997l.29-.158c-.62-1.955-.882-4.509-.771-7.462.172-4.508 1.204-9.946 3.124-15.611C32.75 14.78 37.239 7.91 41.355 4.634c-3.75 3.387-8.824 14.345-10.338 18.399-1.7 4.543-2.905 8.81-3.635 12.892 1.253-3.827 5.3-5.479 5.3-5.479s1.997-2.45 4.31-5.954l-4.44 1.184-1.432.634s3.648-2.224 6.794-3.236c4.316-6.794 9.017-16.45 4.281-20.663"/></g><defs><linearGradient id="b" x1="21.982" x2="21.982" y1="5.088" y2="34.094" gradientUnits="userSpaceOnUse"><stop stop-color="#97d9f6"/><stop offset=".92" stop-color="#0f80cc"/><stop offset="1" stop-color="#0f80cc"/></linearGradient><clipPath id="a"><path fill="#fff" d="M1.44 1.44h45.12v45.12H1.44z"/></clipPath></defs></svg>
